X: 30092
T: Oilean
R: waltz
M: 3/4
K: Dmajor
AG|"D"F3 A, DF|"A"EC A,2 DC|"G"B,3 D FG|"A"E3 A AG|"D"F3 A, DE|"A"EA E2 DC|"G"B,3 G, B,D|"A"C4 AG|
"D"F3 A, DF|"A"C4 D2|"G"B,3 D FG|"A"E4 DC|"G"B,3 D FG|"A"E4 D2|"D"(D6|D6)|
"G"B2 BA Gd|"A"c4 BA|"Bm"c2 d3 F|"G"G6|"D"F2 FE D2|"A"E2 C4|"G"B,3 D DE|"A"C3 A AG|
"D"F3 A, DF|"A"EC A,2 DC|"G"B,3 D FG|"A"E4 DC|"G"B,3 D FG|"A"E4 D2|"D"(D6|D6)||

